src/24/actions/align-horizontal-baseline.svg

<svg xmlns="http://www.w3.org/2000/svg" viewBox="0 0 24 24">
  <defs id="defs3051">
    <style type="text/css" id="current-color-scheme">
      .ColorScheme-Text {
        color:#5d656b;
      }
      </style>
  </defs>
 <path style="fill:currentColor;fill-opacity:1;stroke:none" 
     d="M 8 4 L 8 18.460938 C 7.6712415 18.529726 7.3728903 18.602011 7 18.666016 L 7.2773438 20 C 7.5266713 19.957211 7.7620293 19.903544 8 19.851562 L 8 20 L 9 20 L 9 19.597656 C 13.814903 18.197093 16 14.8535 16 12 L 14.523438 12 C 14.523438 12.9235 14.056965 14.705978 13.257812 15.392578 C 12.442025 14.619478 11.457893 13.424384 11.220703 12.021484 L 10.03125 12 C 10.03125 13.8985 11.372349 15.470647 12.380859 16.435547 C 11.518645 17.311362 10.50343 17.838845 9 18.240234 L 9 4 L 8 4 z M 13.136719 4 C 11.963981 4.0254798 11.062758 4.2175457 10.408203 4.4980469 L 10.777344 5.7597656 C 11.090981 5.6577067 12.277195 5.3007812 12.972656 5.3007812 L 13.068359 5.3007812 C 14.036552 5.3390012 14.105469 5.6695034 14.105469 6.4472656 L 14.105469 6.7539062 L 13.599609 6.8300781 C 11.25412 7.1488409 10 7.4165603 10 9.0996094 C 10 10.272644 10.913577 11 12.236328 11 C 13.149974 11 13.749647 10.64271 14.363281 10.158203 L 14.554688 10.873047 L 16 10.873047 L 16 6.1542969 C 16 4.7135153 14.93717 4 13.300781 4 L 13.136719 4 z M 14.105469 7.7480469 L 14.105469 9.3164062 C 13.600927 9.6351693 13.219009 9.8652344 12.564453 9.8652344 C 11.978085 9.8652344 11.691406 9.5216165 11.691406 9.0371094 C 11.691406 8.1190825 12.54959 7.9644694 13.599609 7.8242188 L 14.105469 7.7480469 z "
     class="ColorScheme-Text"
     />
</svg>

<svg xmlns="http://www.w3.org/2000/svg" viewBox="0 0 24 24"><path d="M8 4v14.46c-.329.07-.627.142-1 .206L7.277 20c.25-.043.485-.096.723-.148V20h1v-.402c4.815-1.4 7-4.744 7-7.598h-1.477c0 .924-.466 2.706-1.265 3.393-.816-.774-1.8-1.969-2.037-3.372L10.03 12c0 1.899 1.341 3.47 2.35 4.436-.862.875-1.878 1.403-3.381 1.804V4H8zm5.137 0c-1.173.025-2.074.218-2.729.498l.37 1.262c.313-.102 1.5-.46 2.195-.46h.095c.969.039 1.037.37 1.037 1.147v.307l-.505.076c-2.346.319-3.6.587-3.6 2.27 0 1.173.914 1.9 2.236 1.9.914 0 1.514-.357 2.127-.842l.192.715H16V6.154C16 4.714 14.937 4 13.3 4h-.163zm.968 3.748v1.568c-.504.32-.886.55-1.54.55-.587 0-.874-.344-.874-.829 0-.918.859-1.073 1.909-1.213l.505-.076z" fill="currentColor" color="#5d656b"/></svg>
